symbols/web/rate_review/materialsymbolsrounded/rate_review_wght100grad200fill1_40px.svg

<svg xmlns="http://www.w3.org/2000/svg" height="40" width="40"><path d="M20.083 22.25H28.5q.375 0 .625-.25t.25-.625q0-.333-.25-.583-.25-.25-.625-.25h-6.708Zm-8.083 0h.958q.25 0 .521-.125t.521-.333l9.292-9.209q.291-.25.291-.5t-.291-.5l-1.459-1.458q-.25-.208-.479-.208-.229 0-.479.208l-9.25 9.333q-.167.25-.292.521-.125.271-.125.521v.958q0 .334.23.563.229.229.562.229Zm-7.375 7.792V7.333q0-1.291.875-2.166t2.167-.875h24.666q1.292 0 2.167.875.875.875.875 2.166v17.875q0 1.292-.875 2.188-.875.896-2.167.896H10l-2.792 2.791q-.75.75-1.666.355-.917-.396-.917-1.396Z"/></svg>

<svg xmlns="http://www.w3.org/2000/svg" height="40" width="40"><path d="M20.083 22.25H28.5Q28.875 22.25 29.125 22Q29.375 21.75 29.375 21.375Q29.375 21.042 29.125 20.792Q28.875 20.542 28.5 20.542H21.792ZM12 22.25H12.958Q13.208 22.25 13.479 22.125Q13.75 22 14 21.792L23.292 12.583Q23.583 12.333 23.583 12.083Q23.583 11.833 23.292 11.583L21.833 10.125Q21.583 9.917 21.354 9.917Q21.125 9.917 20.875 10.125L11.625 19.458Q11.458 19.708 11.333 19.979Q11.208 20.25 11.208 20.5V21.458Q11.208 21.792 11.438 22.021Q11.667 22.25 12 22.25ZM4.625 30.042V7.333Q4.625 6.042 5.5 5.167Q6.375 4.292 7.667 4.292H32.333Q33.625 4.292 34.5 5.167Q35.375 6.042 35.375 7.333V25.208Q35.375 26.5 34.5 27.396Q33.625 28.292 32.333 28.292H10L7.208 31.083Q6.458 31.833 5.542 31.438Q4.625 31.042 4.625 30.042Z"/></svg>
